X:1
T:Chiudete o Muse
T:Luca Marenzio
T:Source : Il primo libro delle Villanelle a tre voci---Venetia---G.Vincenzi---1586. Editor : André Vierendeels (11/05/17).
T:Notes : Original clefs : C1, C2, F3 Editorial accidentals above the staff "Terza impressione" m 7 in S 2 : one quarter "G" too many in original print 
T:Chiudete o Muse
T:©
T:©
C:Luca Marenzio
Z:©
%%score [ 1 2 3 ]
L:1/8
Q:1/4=120
M:4/4
K:C
V:1 treble nm="Soprano 1" snm="S 1"
V:2 treble nm="Soprano 2" snm="S 2"
V:3 treble-8 nm="Tenor" snm="T"
V:1
"^1)" e4 e4- | e2 e2 f4 | e4 g3 g | g2 f2 e4 | d8 :: B4 B4- | B2 B2 c2 c2 | B4 d2 e2- | e2 d2 c4 | %9
w: Chiu- de-|* te'o Mu-|se'i lim- pi-|di ru- scel-|li,|del bel|_ sa- cra- to|fon- t'e Fe-|* bo'in tan-|
w: E voi|_ spir- ti|fe- li- ci|ch'a- scol- ta-|te,|il suon|_ de miei la-|men- ti'e de'i|_ so- spi-|
 B8 | c4 c2 d2 | e3 d cBcd | e3 d cdec | d4 B4 | g3 g g2 ^f2 | e3 d/c/ B4 | A8 |] %17
w: to,|scor- di la|Ce- * * * * *||* tra'e|pon- ga fin al|can- * * *|to.|
w: ri,|vol- ge- te'in|al- tra par- * * *|||te i vo- stri|gi- * * *|ri.|
V:2
"^1)""^2)" ^c4 c4- | c2 ^c2 d4 |"^-natural" c2 e3 d e2- | e2 d2 ^c4 | d8 :: G4 G4- | G2 E2 E2 ^F2 | %7
w: Chiu- de|_ te'o Mu-|se'i lim- pi- di|_ ru- scel-|li,|del bel|_ sa- cra- to|
w: Per- che|_ non spe-|ro di mai piu|_ go- de-|re,|la soa-|* ve'ar- mo- ni-|
 G4 B2 c2- | c2 B2 A4 | ^G8 | A4 A2 B2 | c3 B AGAB | c3 B ABcA | B4 G4 | E3 E E2 ^F2 | ^G2 A4 G2 | %16
w: fon- t'e Fe-|* bo'in tan-|to,|scor- di la|Ce- * * * * *||* tra'e|pon- ga fin al|can- * *|
w: a'e le pa-|* * ro-|le,|del mio vi-|vo lu- * * * *||* cen-|te, e chia- ro|so- * *|
 A8 |] %17
w: to.|
w: le.|
V:3
"^3)""^1)""^4)" A4 A4- | A2 A2 D4 |"^-natural" A2 c3 B c2- | c2 d2 A4 | D8 :: G4 G4- | %6
w: Chiu- de-|* te'o Mu-|se'i lim- pi- di|_ ru- scel-|li,|del bel|
w: Hor poi|_ che pri-|vi son d'ei dol-|* ci'ac- cen-|ti,|e del|
 G2 G2 A2 A2 | G4 G2 c2- | c2 G2 A4 | E8 | A8 | A4 A4 | A8 | G8 | C3 C C2 D2 | E8 | A,8 |] %17
w: _ sa- cra- to|fon- t'e Fe-|* bo'in tan-|to,|scor-|di la|ce-|tra'e|pon- ga fin al|can-|to.|
w: _ bel vol- to|ch'ad- dol- cia|_ l'as- sen-|tio,|fac-|cia Par-|na-|so'un|e- ter- no si-|len-|tio.|

